svg/300/outlined/temple_hindu-fill.svg

<svg xmlns="http://www.w3.org/2000/svg" width="48" height="48" viewBox="0 -960 960 960"><path d="m325.385-669.999 50.923-170.155v-69.845h45.384v80h115.616v-80h45.384v64.845l51.923 175.155h-309.23ZM90.001-90.001v-419.998h45.383v80h117.001l10.616-34.617h433.998l10.616 34.617h117.001v-80h45.383v419.998H537.308v-207.307H422.692v207.307H90.001ZM276.77-509.999l34.846-114.617h336.768l34.846 114.617H276.77Z"/></svg>

<svg xmlns="http://www.w3.org/2000/svg" width="48" height="48" viewBox="0 -960 960 960"><path d="m325.39-670 50.92-170.15V-910h45.38v80h115.62v-80h45.38v64.85L634.61-670H325.39ZM90-90v-420h45.38v80h117.01L263-464.62h434L707.61-430h117.01v-80H870v420H537.31v-207.31H422.69V-90H90Zm186.77-420 34.85-114.62h336.76L683.23-510H276.77Z"/></svg>
